X: 21921
T: Kitchen Girls
R: barndance
M: 4/4
K: Dmajor
|:"A" a4 "G" g4|"A" efed c2d2|"Em"e2f2 "G"gaba|"A"A4 d2e2|
"A"a4 "G"g4|"A" efed c2d2|"A" e2f2 gedB|"G" B2A2 "A" A4:|
|:"C" =c2c2 "G" B2B2|"A" ABAG A2Bc|"C"=c2c2 "G" B2B2|"A7" c3 AB|
"C" =c2cc "G"B2B2|"A"ABAG ABde|"G"gedB BAGB|"D" A6 A2:|

